X:1
T:[ID 7-18b]
T:[ID 7-18b]
T:Bezeichnung standardisiert: Menuett Menuet
T:Urheber unbekannt Datum in der hier transkribierten schriftlichen Quelle: 1776 - 1791
C:Urheber unbekannt
C:Datum in der hier transkribierten schriftlichen Quelle: 1776 - 1791
L:1/8
M:3/4
K:D
V:1 treble 
V:1
 D2 F2 (3ABc | d4 cB | A2 g2 f2 | e2 dc d2 | f4 dB | e2 ^G2 A2 |{Bc} d2 c2 B2 | A6 :: a4 fd | %9
 B2 c2 d2 |{ef} g4 ed | c2 Bc A2 |"^O)" G4 EC | D2 F2 A2 |"^O)" G4 EC | D2 F2 A2 |{EF} G2 F2 E2 | %17
 G6 :| %18

